X: 1
T: Oer the Moor Amang the Heather
O: 1799
R: strathspey
Z: 2019 John Chambers <jc:trillian.mit.edu>
S: Image in Concord Slow Scottish collection
Z: 2019 John Chambers <jc:trillian.mit.edu>
M: C
L: 1/16
K: D
|:\
(A,3D) TD3E ~D3E D2A,2 | (B,2E2) {F}TE3F {F}TG3F E2D2 |\
(F2A2) TA3B T[d3F3]e {de}f3e |{e}d3B (ABd).F TE3F E2D2 :|
|:\
(Ad3) Td3e {c}d3e d2A2 | (B3e) Te2f2 {ef}g3f e2d2 |\
{d}f3e d2B2 (Ag3) THf3e | {e}d3B (ABd).F TE3F E2"^FINE"HD2 :|
|:\
A,(B,DE DA,DE) (FG)(EF) (DE).D.A, | (B,DEF) (EB,EF) (AF)(dF) TE3D |\
(DEFG) A3B (AD)FA [d3F3]e | (fd)(eB) (dA)(BF) (EFG).F E2D2 :|
|:\
D>d (Tdc/d/) f>d (Tdc/d/) (Dd)fe d2A2 | (EGB).^d (ed).e.f (ga)(fg) {f}e2=d2 |\
(fd).e.f (dA).B.d (FA)(EF) (AB).d.e | f>de>B d>AB>F (EFG).F E2"^d.C."HD2 :|
